X: 7995
T: Connaughtman's Rambles, The
R: jig
M: 6/8
K: Dmajor
|:FAA dAA|BAA dAG|FAA dfe|dBB BAG|
FAA dAA|BAA def|gfe dfe|1 dBB BAG:|2 dBB B3||
|:fbb faf|fed ede|fbb faf|fed e3|
fbb faf|fed def|gfe dfe|1 dBB B3:|2 dBB BAG||

